src/drinkingtap.svg

<?xml version="1.0" encoding="UTF-8" standalone="no"?>
<!-- Created with Inkscape (http://www.inkscape.org/) -->

<svg
   xmlns:dc="http://purl.org/dc/elements/1.1/"
   xmlns:cc="http://creativecommons.org/ns#"
   xmlns:rdf="http://www.w3.org/1999/02/22-rdf-syntax-ns#"
   xmlns:svg="http://www.w3.org/2000/svg"
   xmlns="http://www.w3.org/2000/svg"
   xmlns:sodipodi="http://sodipodi.sourceforge.net/DTD/sodipodi-0.dtd"
   xmlns:inkscape="http://www.inkscape.org/namespaces/inkscape"
   width="580"
   height="580"
   id="svg3030"
   version="1.1"
   inkscape:version="0.48.4 r9939"
   sodipodi:docname="New document 2">
  <defs
     id="defs3032" />
  <sodipodi:namedview
     id="base"
     pagecolor="#ffffff"
     bordercolor="#666666"
     borderopacity="1.0"
     inkscape:pageopacity="0.0"
     inkscape:pageshadow="2"
     inkscape:zoom="0.35"
     inkscape:cx="375"
     inkscape:cy="520"
     inkscape:document-units="px"
     inkscape:current-layer="layer1"
     showgrid="false"
     inkscape:window-width="607"
     inkscape:window-height="438"
     inkscape:window-x="639"
     inkscape:window-y="408"
     inkscape:window-maximized="0" />
  <metadata
     id="metadata3035">
    <rdf:RDF>
      <cc:Work
         rdf:about="">
        <dc:format>image/svg+xml</dc:format>
        <dc:type
           rdf:resource="http://purl.org/dc/dcmitype/StillImage" />
        <dc:title></dc:title>
      </cc:Work>
    </rdf:RDF>
  </metadata>
  <g
     inkscape:label="Layer 1"
     inkscape:groupmode="layer"
     id="layer1"
     transform="translate(0,-472.36218)">
    <g
       transform="translate(-80.84117,475.35515)"
       id="g3003">
      <g
         transform="translate(20,12)"
         id="g3353">
        <path
           inkscape:connector-curvature="0"
           transform="translate(15.189701,15.189701)"
           style="opacity:0.98512196;fill:#000000;fill-opacity:1;stroke:#000000;stroke-width:15;stroke-linecap:round;stroke-linejoin:round;stroke-miterlimit:4;stroke-opacity:1;stroke-dashoffset:0"
           d="m 391.67731,24.490931 c -11.66352,4.361614 -27.64526,10.849786 -33.63434,10.849786 -5.98908,0 -10.84979,-4.860704 -10.84979,-10.849786 0,-5.989083 4.86071,-10.849787 10.84979,-10.849787 5.70837,0.219191 22.30594,6.964662 33.63434,10.849787 z"
           id="path3340"
           sodipodi:nodetypes="csscc" />
        <path
           inkscape:connector-curvature="0"
           sodipodi:nodetypes="csscc"
           id="path3345"
           d="m 396.38288,39.680632 c 11.66352,4.361614 27.64526,10.849786 33.63434,10.849786 5.98908,0 10.84979,-4.860704 10.84979,-10.849786 0,-5.989083 -4.86071,-10.849787 -10.84979,-10.849787 -5.70837,0.219191 -22.30594,6.964662 -33.63434,10.849787 z"
           style="opacity:0.98512196;fill:#000000;fill-opacity:1;stroke:#000000;stroke-width:15;stroke-linecap:round;stroke-linejoin:round;stroke-miterlimit:4;stroke-opacity:1;stroke-dashoffset:0" />
        <path
           inkscape:connector-curvature="0"
           style="fill:none;stroke:#000000;stroke-width:30;stroke-linecap:round;stroke-linejoin:miter;stroke-miterlimit:4;stroke-opacity:1;stroke-dasharray:none"
           d="m 401.4421,39.138141 0,66.183699 0.81374,25.76824"
           id="path3347" />
        <path
           sodipodi:type="arc"
           style="opacity:0.98512196;fill:#000000;fill-opacity:1;stroke:#000000;stroke-width:30;stroke-linecap:round;stroke-linejoin:round;stroke-miterlimit:4;stroke-opacity:1;stroke-dasharray:none;stroke-dashoffset:0"
           id="path3349"
           sodipodi:cx="401.44211"
           sodipodi:cy="125.39394"
           sodipodi:rx="22.784552"
           sodipodi:ry="45.569103"
           d="m 424.22666,125.39394 c 0,25.16712 -10.20099,45.56911 -22.78455,45.56911 -12.58356,0 -22.78455,-20.40199 -22.78455,-45.56911 0,-25.16712 10.20099,-45.569099 22.78455,-45.569099 12.58356,0 22.78455,20.401979 22.78455,45.569099 z" />
        <path
           inkscape:connector-curvature="0"
           style="fill:none;stroke:#000000;stroke-width:50;stroke-linecap:butt;stroke-linejoin:miter;stroke-miterlimit:4;stroke-opacity:1;stroke-dasharray:none"
           d="m 522.95971,130.81884 -177.93695,-1.00529 -14.10427,-0.0797 c -69.43863,-1.08498 -65.09872,64.01374 -65.09872,64.01374"
           id="path3351"
           sodipodi:nodetypes="cccc" />
      </g>
      <path
         inkscape:connector-curvature="0"
         sodipodi:nodetypes="ccsssccccsssccccccc"
         id="path2209"
         style="fill:#000000"
         d="m 401.20335,264.66519 -0.15776,0 c 0.18038,-0.15587 0.27968,-0.31299 0.27968,-0.47137 0,-3.73137 -50.95008,-6.75631 -113.80132,-6.75631 -62.85061,0 -113.80132,3.02494 -113.80132,6.75631 0,0.15838 0.0993,0.3155 0.2803,0.47137 l -0.2803,0 35.51742,270.83546 0.16027,0 c -0.31425,0.16969 -0.4808,0.3419 -0.4808,0.51599 0,2.57808 35.19312,4.66657 78.60569,4.66657 43.41319,0 78.60568,-2.08849 78.60568,-4.66657 0,-0.17409 -0.16718,-0.34693 -0.48079,-0.51599 l 35.55325,-270.83546 z m -58.35743,251.03449 c -1.81948,1.68373 -109.7354,0.89471 -111.55489,-0.78902 L 197.55212,281.06395 c 57.5856,0.1919 99.05576,3.05419 177.33559,-1.57804 l -32.04179,236.21377 z" />
    </g>
  </g>
</svg>

<?xml version="1.0" encoding="UTF-8" standalone="no"?>
<!-- Created with Inkscape (http://www.inkscape.org/) -->

<svg
   xmlns:dc="http://purl.org/dc/elements/1.1/"
   xmlns:cc="http://creativecommons.org/ns#"
   xmlns:rdf="http://www.w3.org/1999/02/22-rdf-syntax-ns#"
   xmlns:svg="http://www.w3.org/2000/svg"
   xmlns="http://www.w3.org/2000/svg"
   xmlns:sodipodi="http://sodipodi.sourceforge.net/DTD/sodipodi-0.dtd"
   xmlns:inkscape="http://www.inkscape.org/namespaces/inkscape"
   version="1.0"
   width="580"
   height="580"
   id="svg2"
   sodipodi:version="0.32"
   inkscape:version="0.48.4 r9939"
   sodipodi:docname="drinkingtap.svg"
   inkscape:output_extension="org.inkscape.output.svg.inkscape">
  <metadata
     id="metadata2975">
    <rdf:RDF>
      <cc:Work
         rdf:about="">
        <dc:format>image/svg+xml</dc:format>
        <dc:type
           rdf:resource="http://purl.org/dc/dcmitype/StillImage" />
        <cc:license
           rdf:resource="http://web.resource.org/cc/PublicDomain" />
        <dc:language>en</dc:language>
      </cc:Work>
    </rdf:RDF>
  </metadata>
  <sodipodi:namedview
     inkscape:window-height="947"
     inkscape:window-width="1048"
     inkscape:pageshadow="2"
     inkscape:pageopacity="0.0"
     guidetolerance="10.0"
     gridtolerance="10.0"
     objecttolerance="10.0"
     borderopacity="1.0"
     bordercolor="#666666"
     pagecolor="#ffffff"
     id="base"
     inkscape:zoom="0.46083856"
     inkscape:cx="341.019"
     inkscape:cy="603.08644"
     inkscape:window-x="91"
     inkscape:window-y="25"
     inkscape:current-layer="svg2"
     showgrid="false"
     inkscape:window-maximized="0" />
  <defs
     id="defs4">
    <inkscape:perspective
       sodipodi:type="inkscape:persp3d"
       inkscape:vp_x="0 : 290 : 1"
       inkscape:vp_y="0 : 1000 : 0"
       inkscape:vp_z="580 : 290 : 1"
       inkscape:persp3d-origin="290 : 193.33333 : 1"
       id="perspective2441" />
    <inkscape:perspective
       id="perspective3452"
       inkscape:persp3d-origin="30 : 20 : 1"
       inkscape:vp_z="60 : 30 : 1"
       inkscape:vp_y="0 : 1000 : 0"
       inkscape:vp_x="0 : 30 : 1"
       sodipodi:type="inkscape:persp3d" />
    <symbol
       viewBox="244.5 110 489 219.9"
       id="symbol-university">
      <path
         id="path4460"
         d="M79,43l57,119c0,0,21-96,104-96s124,106,124,106l43-133l82-17L0,17L79,43z" />
      <path
         id="path4462"
         d="M94,176l-21,39"
         stroke-width="20"
         stroke="#000000"
         fill="none" />
      <path
         id="path4464"
         d="M300,19c0,10.5-22.6,19-50.5,19S199,29.5,199,19s22.6-19,50.5-19S300,8.5,300,19z" />
      <path
         id="path4466"
         d="M112,216l-16-38L64,88c0,0-9-8-4-35s16-24,16-24"
         stroke-width="20"
         stroke="#000000"
         ill="none" />
    </symbol>
    <inkscape:perspective
       id="perspective4471"
       inkscape:persp3d-origin="372.04724 : 350.78739 : 1"
       inkscape:vp_z="744.09448 : 526.18109 : 1"
       inkscape:vp_y="0 : 1000 : 0"
       inkscape:vp_x="0 : 526.18109 : 1"
       sodipodi:type="inkscape:persp3d" />
    <inkscape:perspective
       id="perspective4668"
       inkscape:persp3d-origin="6 : 4 : 1"
       inkscape:vp_z="12 : 6 : 1"
       inkscape:vp_y="0 : 1000 : 0"
       inkscape:vp_x="0 : 6 : 1"
       sodipodi:type="inkscape:persp3d" />
    <inkscape:perspective
       id="perspective2562"
       inkscape:persp3d-origin="372.04724 : 350.78739 : 1"
       inkscape:vp_z="744.09448 : 526.18109 : 1"
       inkscape:vp_y="0 : 1000 : 0"
       inkscape:vp_x="0 : 526.18109 : 1"
       sodipodi:type="inkscape:persp3d" />
    <inkscape:perspective
       id="perspective12"
       inkscape:persp3d-origin="290 : 193.33333 : 1"
       inkscape:vp_z="580 : 290 : 1"
       inkscape:vp_y="0 : 1000 : 0"
       inkscape:vp_x="0 : 290 : 1"
       sodipodi:type="inkscape:persp3d" />
  </defs>
  <g
     id="layer3"
     inkscape:label="Layout"
     style="display:none;stroke:#757575;stroke-opacity:1"
     transform="matrix(48.14969,0,0,48.14969,-536.27327,-33.306752)">
    <rect
       style="fill:none;stroke:#757575;stroke-width:0.10000000000000001;stroke-miterlimit:4;stroke-dasharray:none;stroke-opacity:1;display:inline"
       id="rect4134"
       width="10"
       height="10"
       x="1"
       y="1" />
    <rect
       style="fill:none;stroke:#757575;stroke-width:0.10000000000000001;stroke-miterlimit:4;stroke-dasharray:none;stroke-opacity:1;display:inline"
       id="rect4136"
       width="8"
       height="8"
       x="2"
       y="2" />
  </g>
  <g
     id="g3353"
     transform="translate(20,12)">
    <path
       sodipodi:nodetypes="csscc"
       id="path3340"
       d="M 391.67731,24.490931 C 380.01379,28.852545 364.03205,35.340717 358.04297,35.340717 C 352.05389,35.340717 347.19318,30.480013 347.19318,24.490931 C 347.19318,18.501848 352.05389,13.641144 358.04297,13.641144 C 363.75134,13.860335 380.34891,20.605806 391.67731,24.490931 z"
       style="opacity:0.98512196;fill:#000000;;fill-opacity:1;stroke:#000000;;stroke-width:15;stroke-linecap:round;stroke-linejoin:round;stroke-miterlimit:4;stroke-dashoffset:0;stroke-opacity:1"
       transform="translate(15.189701,15.189701)" />
    <path
       style="opacity:0.98512196;fill:#000000;;fill-opacity:1;stroke:#000000;;stroke-width:15;stroke-linecap:round;stroke-linejoin:round;stroke-miterlimit:4;stroke-dashoffset:0;stroke-opacity:1"
       d="M 396.38288,39.680632 C 408.0464,44.042246 424.02814,50.530418 430.01722,50.530418 C 436.0063,50.530418 440.86701,45.669714 440.86701,39.680632 C 440.86701,33.691549 436.0063,28.830845 430.01722,28.830845 C 424.30885,29.050036 407.71128,35.795507 396.38288,39.680632 z"
       id="path3345"
       sodipodi:nodetypes="csscc" />
    <path
       id="path3347"
       d="M 401.4421,39.138141 L 401.4421,105.32184 L 402.25584,131.09008"
       style="fill:none;fill-rule:evenodd;stroke:#000000;;stroke-width:30;stroke-linecap:round;stroke-linejoin:miter;stroke-miterlimit:4;stroke-dasharray:none;stroke-opacity:1" />
    <path
       d="m 424.22666,125.39394 c 0,25.16712 -10.20099,45.56911 -22.78455,45.56911 -12.58356,0 -22.78455,-20.40199 -22.78455,-45.56911 0,-25.16712 10.20099,-45.569099 22.78455,-45.569099 12.58356,0 22.78455,20.401979 22.78455,45.569099 z"
       sodipodi:ry="45.569103"
       sodipodi:rx="22.784552"
       sodipodi:cy="125.39394"
       sodipodi:cx="401.44211"
       id="path3349"
       style="opacity:0.98512196;fill:#000000;;fill-opacity:1;stroke:#000000;;stroke-width:30;stroke-linecap:round;stroke-linejoin:round;stroke-miterlimit:4;stroke-dasharray:none;stroke-dashoffset:0;stroke-opacity:1"
       sodipodi:type="arc" />
    <path
       sodipodi:nodetypes="cccc"
       id="path3351"
       d="M 522.95971,130.81884 L 345.02276,129.81355 L 330.91849,129.73386 C 261.47986,128.64888 265.81977,193.7476 265.81977,193.7476"
       style="fill:none;fill-rule:evenodd;stroke:#000000;;stroke-width:50;stroke-linecap:butt;stroke-linejoin:miter;stroke-miterlimit:4;stroke-dasharray:none;stroke-opacity:1" />
  </g>
  <path
     d="M 401.20335,264.66519 L 401.04559,264.66519 C 401.22597,264.50932 401.32527,264.3522 401.32527,264.19382 C 401.32527,260.46245 350.37519,257.43751 287.52395,257.43751 C 224.67334,257.43751 173.72263,260.46245 173.72263,264.19382 C 173.72263,264.3522 173.82193,264.50932 174.00293,264.66519 L 173.72263,264.66519 L 209.24005,535.50065 L 209.40032,535.50065 C 209.08607,535.67034 208.91952,535.84255 208.91952,536.01664 C 208.91952,538.59472 244.11264,540.68321 287.52521,540.68321 C 330.9384,540.68321 366.13089,538.59472 366.13089,536.01664 C 366.13089,535.84255 365.96371,535.66971 365.6501,535.50065 L 401.20335,264.66519 z M 342.84592,515.69968 C 341.02644,517.38341 233.11052,516.59439 231.29103,514.91066 L 197.55212,281.06395 C 255.13772,281.25585 296.60788,284.11814 374.88771,279.48591 L 342.84592,515.69968 z"
     style="fill:#000000;"
     id="path2209"
     sodipodi:nodetypes="ccsssccccsssccccccc" />
  <path
     style="opacity:0.1;fill:#000000;;fill-opacity:1;fill-rule:evenodd;stroke:none;stroke-width:1px;stroke-linecap:butt;stroke-linejoin:miter;stroke-opacity:1"
     d="M 188.1914,276.64338 L 383.07881,278.22142 L 351.5181,527.7707 L 218.17408,529.34874 L 188.1914,276.64338 z"
     id="path2381"
     sodipodi:nodetypes="ccccc" />
</svg>
